X: 677
T: Planxty Irwin
C:O'Carolan
B:O'Neill's 677
Z: 1997 by John Chambers <jc@trillian.mit.edu>
N:"Spirited"
M:6/8
L:1/8
K:D
A \
| d2c Bcd | A2G FED | G2E FGA | C2D E2c |
| d2c Bcd | A2G FED | G2E FGA | D2C D2 :|
|| A \
| d>ed d2d | e2e ecA | (A<f)f e2d | dcB ABc |
| d2c Bcd | A2G FED | G2E FGA | D2C D2 :|


